svgs/sharp-light/teeth.svg

<svg xmlns="http://www.w3.org/2000/svg" viewBox="0 0 576 512"><!--! Font Awesome Pro 6.6.0 by @fontawesome - https://fontawesome.com License - https://fontawesome.com/license (Commercial License) Copyright 2024 Fonticons, Inc. --><path d="M32 64l0 384 512 0 0-384L32 64zM0 32l32 0 512 0 32 0 0 32 0 384 0 32-32 0L32 480 0 480l0-32L0 64 0 32zM160 224c0-17.7-14.3-32-32-32s-32 14.3-32 32l0 32 64 0 0-32zM96 288l0 32c0 17.7 14.3 32 32 32s32-14.3 32-32l0-32-64 0zm75.5 79c-11.4 10.6-26.7 17-43.5 17c-35.3 0-64-28.7-64-64l0-48 0-48c0-35.3 28.7-64 64-64c14 0 27 4.5 37.6 12.2c10.9-26 36.5-44.2 66.4-44.2c22.6 0 42.8 10.4 56 26.7c13.2-16.3 33.4-26.7 56-26.7c29.9 0 55.5 18.2 66.4 44.2C421 164.5 434 160 448 160c35.3 0 64 28.7 64 64l0 48 0 48c0 35.3-28.7 64-64 64c-16.8 0-32-6.5-43.5-17c-12.8 19.9-35.1 33-60.5 33c-22.6 0-42.8-10.4-56-26.7c-13.2 16.3-33.4 26.7-56 26.7c-25.4 0-47.7-13.2-60.5-33zM232 160c-22.1 0-40 17.9-40 40l0 24 0 32 80 0 0-56c0-22.1-17.9-40-40-40zM192 320l0 8c0 22.1 17.9 40 40 40s40-17.9 40-40l0-40-80 0 0 32zm224-64l64 0 0-32c0-17.7-14.3-32-32-32s-32 14.3-32 32l0 32zm0 64c0 17.7 14.3 32 32 32s32-14.3 32-32l0-32-64 0 0 32zm-72 48c22.1 0 40-17.9 40-40l0-8 0-32-80 0 0 40c0 22.1 17.9 40 40 40zm40-112l0-32 0-24c0-22.1-17.9-40-40-40s-40 17.9-40 40l0 56 80 0z"/></svg>

<svg xmlns="http://www.w3.org/2000/svg" viewBox="0 0 576 512"><!--! Font Awesome Pro 6.4.2 by @fontawesome - https://fontawesome.com License - https://fontawesome.com/license (Commercial License) Copyright 2023 Fonticons, Inc. --><path d="M32 64V448H544V64H32zM0 32H32 544h32V64 448v32H544 32 0V448 64 32zM160 224c0-17.7-14.3-32-32-32s-32 14.3-32 32v32h64V224zM96 288v32c0 17.7 14.3 32 32 32s32-14.3 32-32V288H96zm75.5 79c-11.4 10.6-26.7 17-43.5 17c-35.3 0-64-28.7-64-64V272 224c0-35.3 28.7-64 64-64c14 0 27 4.5 37.6 12.2c10.9-26 36.5-44.2 66.4-44.2c22.6 0 42.8 10.4 56 26.7c13.2-16.3 33.4-26.7 56-26.7c29.9 0 55.5 18.2 66.4 44.2C421 164.5 434 160 448 160c35.3 0 64 28.7 64 64v48 48c0 35.3-28.7 64-64 64c-16.8 0-32-6.5-43.5-17c-12.8 19.9-35.1 33-60.5 33c-22.6 0-42.8-10.4-56-26.7c-13.2 16.3-33.4 26.7-56 26.7c-25.4 0-47.7-13.2-60.5-33zM232 160c-22.1 0-40 17.9-40 40v24 32h80V200c0-22.1-17.9-40-40-40zM192 320v8c0 22.1 17.9 40 40 40s40-17.9 40-40V288H192v32zm224-64h64V224c0-17.7-14.3-32-32-32s-32 14.3-32 32v32zm0 64c0 17.7 14.3 32 32 32s32-14.3 32-32V288H416v32zm-72 48c22.1 0 40-17.9 40-40v-8V288H304v40c0 22.1 17.9 40 40 40zm40-112V224 200c0-22.1-17.9-40-40-40s-40 17.9-40 40v56h80z"/></svg>
